X: 30596
T: One I Know, The
R: polka
M: 2/4
K: Gmajor
|:d2 d>B|dg ge|dB GB|A2 AB/c/|
d2 d>B|dg ge|dB AB|1 G2 GB/c/:|2 G2 G2||
|:dg bg|ag g>e|dg bg|(a2 a)g/e/|
dg bg|ag g>e|dB AB/A/|1 G2 G2:|2 G2 GB/c/||

